src/lib/packages/icons/src/assets/filled/map.svg

<svg width="24" height="24" viewBox="0 0 24 24" fill="none" xmlns="http://www.w3.org/2000/svg">
<path d="M14.85 5.50814V20.4071C14.85 20.6161 14.641 20.7611 14.445 20.6881L9.345 18.773C9.228 18.729 9.14999 18.617 9.14999 18.492V3.5931C9.14999 3.3841 9.35899 3.2391 9.55499 3.3121L14.655 5.22714C14.773 5.27114 14.85 5.38314 14.85 5.50814ZM7.215 3.46908L4.10001 5.035C3.42501 5.374 2.99899 6.06515 2.99899 6.82015V19.5001C2.99899 20.2501 3.77901 20.73 4.44901 20.4L7.48401 18.8731C7.58501 18.8221 7.64899 18.7181 7.64899 18.6051V3.73617C7.64999 3.51317 7.415 3.36808 7.215 3.46908ZM19.55 3.60018L16.515 5.12704C16.414 5.17804 16.35 5.28211 16.35 5.39511V20.264C16.35 20.487 16.585 20.6321 16.785 20.5321L19.89 18.9701C20.571 18.6281 21 17.931 21 17.169V4.50009C21 3.75009 20.22 3.27018 19.55 3.60018Z" fill="currentColor"/>
</svg>

<svg xmlns="http://www.w3.org/2000/svg" width="24" height="24" fill="none"><path fill="currentColor" d="M14.85 5.508v14.9a.3.3 0 0 1-.405.28l-5.1-1.915a.3.3 0 0 1-.195-.281V3.593a.3.3 0 0 1 .405-.28l5.1 1.914a.3.3 0 0 1 .195.281ZM7.215 3.47 4.1 5.035A1.998 1.998 0 0 0 2.999 6.82V19.5c0 .75.78 1.23 1.45.9l3.035-1.527a.3.3 0 0 0 .165-.268V3.736a.299.299 0 0 0-.434-.267Zm12.335.13-3.035 1.527a.3.3 0 0 0-.165.268v14.869a.3.3 0 0 0 .435.268l3.105-1.562a2.015 2.015 0 0 0 1.11-1.8V4.5c0-.75-.78-1.23-1.45-.9Z"/></svg>
